resources/haticons/SVG/crop.svg

<!-- Generated by IcoMoon.io -->
<svg version="1.1" xmlns="http://www.w3.org/2000/svg" width="24" height="24" viewBox="0 0 24 24">
<title>crop</title>
<path d="M19.5 6l4.5-4.5-1.5-1.5-4.5 4.5h-10.5v-4.5h-3v4.5h-4.5v3h4.5v12h12v4.5h3v-4.5h4.5v-3h-4.5v-10.5zM7.5 7.5h7.5l-7.5 7.5v-7.5zM9 16.5l7.5-7.5v7.5h-7.5z"></path>
</svg>

<svg xmlns="http://www.w3.org/2000/svg" width="24" height="24"><path d="M19.5 6L24 1.5 22.5 0 18 4.5H7.5V0h-3v4.5H0v3h4.5v12h12V24h3v-4.5H24v-3h-4.5V6zm-12 1.5H15L7.5 15V7.5zm1.5 9L16.5 9v7.5H9z"/></svg>
